static/img/device/component-ferrite-core.svg

<svg width="47" height="48" viewBox="0 0 47 48" fill="none" xmlns="http://www.w3.org/2000/svg">
<g clip-path="url(#clip0_595_1104)">
<path d="M31.26 2.28999C22.91 -1.28001 14.1 -0.0600066 8.95001 5.13999L8.56001 5.67999L4.05001 11.93C3.51001 12.56 3.01001 13.24 2.57001 13.98L2.55001 14.01C1.06001 16.53 0.210008 19.65 0.250008 23.31C0.410008 37.45 13.87 47.68 26.16 46.78C32.65 46.3 37.61 42.68 40.1 37.7L45.53 29.94L45.8 29.57C46.37 27.96 46.69 26.25 46.73 24.48C46.95 16.02 40.92 6.41999 31.25 2.28999H31.26Z" fill="white"/>
<path d="M34.78 29.85C34.63 35.3 30.46 39.94 24.18 40.39C15.87 40.98 6.78 34.3 6.67 25.08C6.56 15.86 15.89 11.73 24.48 15.34C30.91 18.04 34.92 24.33 34.77 29.86L34.78 29.85Z" stroke="#231815" stroke-width="0.3" stroke-miterlimit="10"/>
<path d="M41.86 30.62C41.64 38.98 35.45 46.1 26.16 46.78C13.87 47.68 0.410003 37.45 0.250003 23.31C0.0900029 8.79999 13.91 2.82999 26.63 8.36999C36.15 12.51 42.08 22.14 41.86 30.63V30.62Z" stroke="#231815" stroke-width="0.3" stroke-miterlimit="10"/>
<path d="M8.98 5.09999L2.56 14" stroke="#231815" stroke-width="0.3" stroke-miterlimit="10"/>
<path d="M45.9 29.43L40.11 37.71" stroke="#231815" stroke-width="0.3" stroke-miterlimit="10"/>
<path d="M8.95001 5.13999C14.1 -0.0600066 22.91 -1.28001 31.26 2.28999C40.93 6.41999 46.97 16.02 46.74 24.48C46.69 26.25 46.37 27.96 45.81 29.57" stroke="#231815" stroke-width="0.3" stroke-miterlimit="10"/>
<path d="M34.25 32.65C32.82 33.36 31.19 33.82 29.39 33.95C20.77 34.55 11.32 27.66 11.21 18.13C11.21 17.33 11.26 16.56 11.37 15.83" stroke="#231815" stroke-width="0.3" stroke-miterlimit="10"/>
<path d="M31.26 2.28999C22.91 -1.28001 14.1 -0.0600066 8.95001 5.13999L8.56001 5.67999L4.05001 11.93C3.51001 12.56 3.01001 13.24 2.57001 13.98L2.55001 14.01C1.06001 16.53 0.210008 19.65 0.250008 23.31C0.410008 37.45 13.87 47.68 26.16 46.78C32.65 46.3 37.61 42.68 40.1 37.7L45.53 29.94L45.8 29.57C46.37 27.96 46.69 26.25 46.73 24.48C46.95 16.02 40.92 6.41999 31.25 2.28999H31.26Z" stroke="#231815" stroke-width="0.5" stroke-miterlimit="10"/>
</g>
<defs>
<clipPath id="clip0_595_1104">
<rect width="47" height="47.09" fill="white"/>
</clipPath>
</defs>
</svg>

<svg xmlns="http://www.w3.org/2000/svg" width="47" height="48" fill="none" viewBox="0 0 47 48"><g clip-path="url(#a)"><path fill="#fff" d="M31.26 2.29C22.91-1.28 14.1-.06 8.95 5.14l-.39.54-4.51 6.25c-.54.63-1.04 1.31-1.48 2.05l-.02.03c-1.49 2.52-2.34 5.64-2.3 9.3.16 14.14 13.62 24.37 25.91 23.47 6.49-.48 11.45-4.1 13.94-9.08l5.43-7.76.27-.37c.57-1.61.89-3.32.93-5.09.22-8.46-5.81-18.06-15.48-22.19z"/><path stroke="#231815" stroke-miterlimit="10" stroke-width=".3" d="M34.78 29.85c-.15 5.45-4.32 10.09-10.6 10.54-8.31.59-17.4-6.09-17.51-15.31s9.22-13.35 17.81-9.74c6.43 2.7 10.44 8.99 10.29 14.52z"/><path stroke="#231815" stroke-miterlimit="10" stroke-width=".3" d="M41.86 30.62c-.22 8.36-6.41 15.48-15.7 16.16C13.87 47.68.41 37.45.25 23.31.09 8.8 13.91 2.83 26.63 8.37c9.52 4.14 15.45 13.77 15.23 22.26zM8.98 5.1 2.56 14M45.9 29.43l-5.79 8.28"/><path stroke="#231815" stroke-miterlimit="10" stroke-width=".3" d="M8.95 5.14c5.15-5.2 13.96-6.42 22.31-2.85 9.67 4.13 15.71 13.73 15.48 22.19-.05 1.77-.37 3.48-.93 5.09M34.25 32.65c-1.43.71-3.06 1.17-4.86 1.3-8.62.6-18.07-6.29-18.18-15.82 0-.8.05-1.57.16-2.3"/><path stroke="#231815" stroke-miterlimit="10" stroke-width=".5" d="M31.26 2.29C22.91-1.28 14.1-.06 8.95 5.14l-.39.54-4.51 6.25c-.54.63-1.04 1.31-1.48 2.05l-.02.03c-1.49 2.52-2.34 5.64-2.3 9.3.16 14.14 13.62 24.37 25.91 23.47 6.49-.48 11.45-4.1 13.94-9.08l5.43-7.76.27-.37c.57-1.61.89-3.32.93-5.09.22-8.46-5.81-18.06-15.48-22.19z"/></g><defs><clipPath id="a"><path fill="#fff" d="M0 0h47v47.09H0z"/></clipPath></defs></svg>
